symbols/web/pan_tool_alt/materialsymbolsrounded/pan_tool_alt_wght100_48px.svg

<svg xmlns="http://www.w3.org/2000/svg" height="48" width="48"><path d="M20.95 39.4q-.3 0-.575-.125-.275-.125-.525-.375l-7.6-7.5q-.25-.25-.325-.75-.075-.5.175-.85.25-.4.675-.575.425-.175.875-.075l6.8 1.35V11q0-1 .7-1.7t1.7-.7q1 0 1.7.7t.7 1.7v10.6h2.1q.2 0 .375.05t.325.15l6.1 3q1.45.7 2.075 2.275.625 1.575.325 3.225l-1.4 8q-.1.5-.475.8-.375.3-.925.3Zm-.1-1.1H34l1.5-8.45q.15-1.05-.175-2.2Q35 26.5 33.9 25.95l-6.45-3.25h-3.3V11q0-.6-.35-.95t-.95-.35q-.6 0-.95.35t-.35.95v20.8l-8.25-1.65-.35.35Zm0 0H33.8Z"/></svg>

<svg xmlns="http://www.w3.org/2000/svg" height="48" width="48"><path d="M20.95 39.4Q20.65 39.4 20.375 39.275Q20.1 39.15 19.85 38.9L12.25 31.4Q12 31.15 11.925 30.65Q11.85 30.15 12.1 29.8Q12.35 29.4 12.775 29.225Q13.2 29.05 13.65 29.15L20.45 30.5V11Q20.45 10 21.15 9.3Q21.85 8.6 22.85 8.6Q23.85 8.6 24.55 9.3Q25.25 10 25.25 11V21.6H27.35Q27.55 21.6 27.725 21.65Q27.9 21.7 28.05 21.8L34.15 24.8Q35.6 25.5 36.225 27.075Q36.85 28.65 36.55 30.3L35.15 38.3Q35.05 38.8 34.675 39.1Q34.3 39.4 33.75 39.4ZM20.85 38.3H34L35.5 29.85Q35.65 28.8 35.325 27.65Q35 26.5 33.9 25.95L27.45 22.7H24.15V11Q24.15 10.4 23.8 10.05Q23.45 9.7 22.85 9.7Q22.25 9.7 21.9 10.05Q21.55 10.4 21.55 11V31.8L13.3 30.15L12.95 30.5ZM20.85 38.3H21.55Q21.55 38.3 21.9 38.3Q22.25 38.3 22.85 38.3Q23.45 38.3 23.8 38.3Q24.15 38.3 24.15 38.3H27.45H33.8Q33.8 38.3 33.8 38.3Q33.8 38.3 33.8 38.3Z"/></svg>
